src/assets/img/Premium3.svg

<svg width="123" height="112" viewBox="0 0 123 112" fill="none" xmlns="http://www.w3.org/2000/svg">
<g filter="url(#filter0_i_2278_447)">
<path fill-rule="evenodd" clip-rule="evenodd" d="M62.1314 50.5273L68.5845 33.169C69.329 31.1664 71.5809 30.13 73.6144 30.8539C74.4127 31.1381 75.0944 31.6701 75.5568 32.3698L85.3608 47.2061C86.1617 48.418 87.5327 49.1476 89.0053 49.1456L105.842 49.1221C108.128 49.1189 109.976 50.9384 109.97 53.1861C109.968 54.1118 109.644 55.0103 109.054 55.7333L97.4325 69.9541C96.9633 70.5283 96.7926 71.2838 96.9711 71.997L101.183 88.8318C101.786 91.2419 100.286 93.6842 97.8323 94.2868C96.9025 94.5152 95.9245 94.4513 95.036 94.104L80.2887 88.3398C79.2218 87.9228 78.0122 88.0508 77.0558 88.682L63.5452 97.599C61.6437 98.854 59.0739 98.3597 57.8054 96.495C57.3307 95.7973 57.0882 94.9713 57.111 94.1306L57.3276 86.1515C57.4336 82.2489 59.464 78.6334 62.7703 76.4597L77.7803 66.5917C78.1811 66.3282 78.2901 65.796 78.0238 65.4029C77.8175 65.0984 77.4364 64.9575 77.0759 65.0525L57.8853 70.1053C54.9517 70.8778 51.8283 70.4132 49.2675 68.8236L42.1509 64.406C40.12 63.1454 39.5196 60.5004 40.8099 58.4982C41.4099 57.5672 42.3503 56.8974 43.4361 56.6276L59.8513 52.5498C60.9041 52.2883 61.7584 51.5305 62.1314 50.5273Z" fill="url(#paint0_linear_2278_447)" fill-opacity="0.8"/>
<path fill-rule="evenodd" clip-rule="evenodd" d="M15.4185 56.341L18.6547 51.9914C19.0281 51.4896 19.7459 51.3828 20.2581 51.7529C20.4592 51.8982 20.6072 52.1036 20.6798 52.3382L22.2193 57.3114C22.345 57.7176 22.6705 58.035 23.0846 58.1552L27.8185 59.5285C28.4612 59.7149 28.8315 60.3777 28.6456 61.0089C28.569 61.2689 28.4045 61.4949 28.1792 61.6497L23.7476 64.694C23.5687 64.8169 23.4588 65.0153 23.4505 65.2303L23.2545 70.3069C23.2264 71.0336 22.6047 71.5971 21.8658 71.5654C21.5857 71.5534 21.3161 71.4553 21.0949 71.2849L17.4226 68.4562C17.1569 68.2516 16.8065 68.1884 16.4859 68.2874L11.958 69.6862C11.3207 69.8831 10.639 69.5336 10.4353 68.9056C10.3591 68.6706 10.3586 68.4185 10.434 68.1841L11.1488 65.9594C11.4984 64.8712 12.3654 64.0215 13.4727 63.6816L18.5 62.1384C18.6342 62.0972 18.7085 61.9565 18.6659 61.8242C18.6328 61.7217 18.5373 61.6509 18.4282 61.648L12.6206 61.4954C11.7328 61.472 10.8931 61.0855 10.3036 60.4288L8.66556 58.604C8.19811 58.0833 8.24615 57.2907 8.77286 56.8338C9.0178 56.6213 9.33698 56.5101 9.66427 56.5233L14.6119 56.7226C14.9292 56.7353 15.2314 56.5924 15.4185 56.341Z" fill="url(#paint1_linear_2278_447)" fill-opacity="0.5"/>
<path fill-rule="evenodd" clip-rule="evenodd" d="M52.136 27.9385L54.4636 26.1786C54.7321 25.9756 55.1191 26.0286 55.328 26.297C55.41 26.4024 55.4555 26.5308 55.4577 26.663L55.5038 29.4646C55.5075 29.6935 55.6279 29.9065 55.8237 30.031L58.0629 31.4539C58.3669 31.647 58.4583 32.0453 58.2672 32.3435C58.1884 32.4663 58.0694 32.5583 57.9296 32.6043L55.1811 33.5096C55.0701 33.5461 54.9835 33.632 54.9468 33.7419L54.0806 36.3355C53.9566 36.7068 53.5504 36.9042 53.1734 36.7765C53.0305 36.7281 52.9059 36.6368 52.8173 36.5154L51.346 34.5005C51.2396 34.3547 51.068 34.2693 50.8875 34.2721L48.3371 34.3127C47.9782 34.3184 47.6786 34.035 47.668 33.6798C47.664 33.5469 47.7017 33.4166 47.776 33.3069L48.4805 32.265C48.8251 31.7555 49.4011 31.447 50.0245 31.4382L52.8547 31.3984C52.9303 31.3973 52.9898 31.3358 52.9877 31.261C52.9861 31.2031 52.9474 31.1521 52.8915 31.1342L49.9136 30.1802C49.4584 30.0344 49.0828 29.7081 48.8771 29.28L48.3057 28.0903C48.1426 27.7508 48.2869 27.3485 48.6279 27.1918C48.7865 27.1189 48.9681 27.1095 49.1353 27.1656L51.6617 28.0141C51.8238 28.0685 52.0015 28.0402 52.136 27.9385Z" fill="url(#paint2_linear_2278_447)" fill-opacity="0.3"/>
<path fill-rule="evenodd" clip-rule="evenodd" d="M59.5989 10.1322L60.3073 7.30146C60.389 6.97489 60.7237 6.77338 61.0547 6.85136C61.1847 6.88197 61.3007 6.95342 61.3853 7.05495L63.1789 9.20771C63.3254 9.38357 63.5528 9.47397 63.7834 9.44801L66.4197 9.15127C66.7776 9.11099 67.0987 9.36376 67.1369 9.71586C67.1526 9.86087 67.1176 10.0072 67.0377 10.1307L65.4653 12.56C65.4018 12.6581 65.3882 12.7794 65.4286 12.888L66.3812 15.4511C66.5176 15.818 66.3252 16.2266 65.9514 16.3637C65.8098 16.4156 65.6555 16.4226 65.5103 16.3837L63.1005 15.7377C62.9262 15.691 62.739 15.7321 62.6002 15.8476L60.6396 17.4792C60.3637 17.7088 59.9526 17.6761 59.7215 17.4062C59.635 17.3052 59.5827 17.18 59.5716 17.048L59.4667 15.7947C59.4153 15.1816 59.6704 14.5801 60.1503 14.1821L62.3292 12.3755C62.3873 12.3273 62.3952 12.242 62.3466 12.1851C62.309 12.141 62.2469 12.1256 62.1921 12.1467L59.2747 13.2721C58.8287 13.4441 58.3315 13.4257 57.9028 13.2213L56.7114 12.6534C56.3714 12.4913 56.2314 12.0876 56.3986 11.7516C56.4763 11.5953 56.6119 11.474 56.7773 11.4129L59.277 10.4886C59.4373 10.4293 59.5579 10.2958 59.5989 10.1322Z" fill="url(#paint3_linear_2278_447)" fill-opacity="0.3"/>
<path fill-rule="evenodd" clip-rule="evenodd" d="M93.9229 21.0937L96.5549 18.0694C96.8586 17.7205 97.3939 17.6823 97.7506 17.9842C97.8907 18.1027 97.9882 18.2625 98.0285 18.4395L98.8825 22.1935C98.9523 22.5002 99.1744 22.7526 99.4729 22.8646L102.886 24.1447C103.349 24.3185 103.585 24.8281 103.412 25.2831C103.341 25.4704 103.207 25.6278 103.032 25.7292L99.5923 27.7234C99.4534 27.804 99.3612 27.944 99.3429 28.1021L98.9115 31.8342C98.8497 32.3685 98.3594 32.7488 97.8164 32.6837C97.6106 32.659 97.4173 32.5714 97.2638 32.4333L94.7159 30.14C94.5316 29.9741 94.2767 29.9078 94.0348 29.9627L90.6171 30.7382C90.1361 30.8473 89.6532 30.5511 89.5385 30.0765C89.4956 29.8989 89.5095 29.7131 89.5782 29.5445L90.231 27.9445C90.5503 27.1619 91.2376 26.5843 92.0733 26.3963L95.8674 25.5425C95.9687 25.5197 96.0314 25.4202 96.0074 25.3202C95.9889 25.2428 95.9224 25.1852 95.8421 25.1769L91.5685 24.7361C90.9153 24.6687 90.3179 24.3363 89.9204 23.8188L88.8157 22.3807C88.5005 21.9703 88.5807 21.3886 88.9949 21.0815C89.1875 20.9386 89.4291 20.8747 89.6697 20.9029L93.3066 21.3294C93.5398 21.3568 93.7707 21.2684 93.9229 21.0937Z" fill="url(#paint4_linear_2278_447)" fill-opacity="0.3"/>
</g>
<defs>
<linearGradient id="paint0_linear_2278_447" x1="103.416" y1="9.67958" x2="80.19" y2="96.5914" gradientUnits="userSpaceOnUse">
<stop stop-color="#E48FF8"/>
<stop offset="0.57" stop-color="#B077EC"/>
<stop offset="1" stop-color="#8F89F6"/>
</linearGradient>
<linearGradient id="paint1_linear_2278_447" x1="30.3691" y1="48.2444" x2="16.7186" y2="70.7672" gradientUnits="userSpaceOnUse">
<stop stop-color="#E48FF8"/>
<stop offset="0.57" stop-color="#B077EC"/>
<stop offset="1" stop-color="#8F89F6"/>
</linearGradient>
<linearGradient id="paint2_linear_2278_447" x1="61.0811" y1="26.0076" x2="50.634" y2="35.5885" gradientUnits="userSpaceOnUse">
<stop stop-color="#E48FF8"/>
<stop offset="0.57" stop-color="#B077EC"/>
<stop offset="1" stop-color="#8F89F6"/>
</linearGradient>
<linearGradient id="paint3_linear_2278_447" x1="65.3532" y1="3.01666" x2="63.2287" y2="17.0317" gradientUnits="userSpaceOnUse">
<stop stop-color="#E48FF8"/>
<stop offset="0.57" stop-color="#B077EC"/>
<stop offset="1" stop-color="#8F89F6"/>
</linearGradient>
<linearGradient id="paint4_linear_2278_447" x1="105.404" y1="15.9685" x2="94.0662" y2="31.8043" gradientUnits="userSpaceOnUse">
<stop stop-color="#E48FF8"/>
<stop offset="0.57" stop-color="#B077EC"/>
<stop offset="1" stop-color="#8F89F6"/>
</linearGradient>
</defs>
</svg>

<svg xmlns="http://www.w3.org/2000/svg" width="123" height="112" fill="none"><g fill-rule="evenodd" clip-rule="evenodd" filter="url(#filter0_i_2278_447)"><path fill="url(#a)" fill-opacity=".8" d="m62.131 50.527 6.454-17.358c.744-2.003 2.996-3.039 5.03-2.315.798.284 1.48.816 1.942 1.516l9.804 14.836a4.356 4.356 0 0 0 3.644 1.94l16.837-.024c2.286-.003 4.134 1.816 4.128 4.064a4.044 4.044 0 0 1-.916 2.547L97.433 69.954c-.47.574-.64 1.33-.462 2.043l4.212 16.835c.603 2.41-.897 4.852-3.35 5.455a4.643 4.643 0 0 1-2.797-.183L80.289 88.34a3.54 3.54 0 0 0-3.233.342l-13.51 8.917c-1.902 1.255-4.472.76-5.74-1.104a4.008 4.008 0 0 1-.695-2.364l.217-7.98c.106-3.902 2.136-7.518 5.442-9.691l15.01-9.868a.85.85 0 0 0 .244-1.19.875.875 0 0 0-.948-.35l-19.19 5.053a11.03 11.03 0 0 1-8.619-1.281l-7.116-4.418a4.233 4.233 0 0 1-1.341-5.908c.6-.93 1.54-1.6 2.626-1.87l16.415-4.078a3.267 3.267 0 0 0 2.28-2.023Z"/><path fill="url(#b)" fill-opacity=".5" d="m15.418 56.341 3.237-4.35a1.158 1.158 0 0 1 2.025.347l1.54 4.973c.125.407.45.724.865.844l4.733 1.373c.643.187 1.013.85.828 1.48-.077.26-.242.487-.467.642l-4.431 3.044a.683.683 0 0 0-.297.536l-.197 5.077a1.321 1.321 0 0 1-1.388 1.258 1.36 1.36 0 0 1-.771-.28l-3.672-2.829a1.037 1.037 0 0 0-.937-.169l-4.528 1.4a1.222 1.222 0 0 1-1.523-.781 1.173 1.173 0 0 1-.001-.722l.715-2.225a3.514 3.514 0 0 1 2.324-2.277l5.027-1.544a.249.249 0 0 0 .166-.314.256.256 0 0 0-.238-.176l-5.807-.153a3.23 3.23 0 0 1-2.317-1.066l-1.638-1.825a1.24 1.24 0 0 1 .107-1.77c.245-.213.564-.324.891-.31l4.948.199c.317.012.62-.13.806-.382Z"/><path fill="url(#c)" fill-opacity=".3" d="m52.136 27.939 2.328-1.76a.623.623 0 0 1 .994.484l.046 2.802a.686.686 0 0 0 .32.566l2.239 1.423a.637.637 0 0 1-.133 1.15l-2.749.906a.367.367 0 0 0-.234.232l-.866 2.594a.711.711 0 0 1-.908.44.731.731 0 0 1-.356-.26L51.346 34.5a.558.558 0 0 0-.458-.229l-2.55.04a.658.658 0 0 1-.67-.632.63.63 0 0 1 .108-.373l.704-1.042c.345-.51.921-.818 1.545-.827l2.83-.04a.134.134 0 0 0 .133-.137.138.138 0 0 0-.096-.127l-2.978-.954a1.738 1.738 0 0 1-1.037-.9l-.571-1.19a.667.667 0 0 1 .322-.898.69.69 0 0 1 .507-.026l2.527.848c.162.055.34.026.474-.075Z"/><path fill="url(#d)" fill-opacity=".3" d="m59.599 10.132.708-2.83a.623.623 0 0 1 1.078-.247l1.794 2.153a.686.686 0 0 0 .604.24l2.637-.297a.637.637 0 0 1 .618.98l-1.573 2.429a.367.367 0 0 0-.036.328l.952 2.563a.711.711 0 0 1-.43.913.732.732 0 0 1-.44.02l-2.41-.646a.558.558 0 0 0-.5.11l-1.961 1.631a.658.658 0 0 1-.919-.073.632.632 0 0 1-.15-.358l-.104-1.253a1.892 1.892 0 0 1 .683-1.613l2.18-1.806a.134.134 0 0 0 .017-.19.138.138 0 0 0-.155-.04l-2.917 1.126a1.738 1.738 0 0 1-1.372-.05l-1.192-.569a.667.667 0 0 1-.312-.901.69.69 0 0 1 .378-.34l2.5-.923c.16-.06.28-.193.322-.357Z"/><path fill="url(#e)" fill-opacity=".3" d="m93.923 21.094 2.632-3.025a.856.856 0 0 1 1.473.37l.854 3.755c.07.306.292.559.59.67l3.414 1.28a.884.884 0 0 1 .526 1.14.874.874 0 0 1-.38.445l-3.44 1.994a.505.505 0 0 0-.25.38l-.43 3.731a.977.977 0 0 1-1.096.85 1.006 1.006 0 0 1-.552-.25l-2.548-2.294a.766.766 0 0 0-.681-.177l-3.418.775a.904.904 0 0 1-1.079-.662.868.868 0 0 1 .04-.532l.653-1.6a2.599 2.599 0 0 1 1.842-1.548l3.794-.854a.184.184 0 0 0 .14-.222.19.19 0 0 0-.165-.143l-4.273-.44a2.388 2.388 0 0 1-1.649-.918l-1.104-1.438a.916.916 0 0 1 .179-1.3.947.947 0 0 1 .675-.178l3.637.426a.707.707 0 0 0 .616-.235Z"/></g><defs><linearGradient id="a" x1="103.416" x2="80.19" y1="9.68" y2="96.591" gradientUnits="userSpaceOnUse"><stop stop-color="#E48FF8"/><stop offset=".57" stop-color="#B077EC"/><stop offset="1" stop-color="#8F89F6"/></linearGradient><linearGradient id="b" x1="30.369" x2="16.719" y1="48.244" y2="70.767" gradientUnits="userSpaceOnUse"><stop stop-color="#E48FF8"/><stop offset=".57" stop-color="#B077EC"/><stop offset="1" stop-color="#8F89F6"/></linearGradient><linearGradient id="c" x1="61.081" x2="50.634" y1="26.008" y2="35.589" gradientUnits="userSpaceOnUse"><stop stop-color="#E48FF8"/><stop offset=".57" stop-color="#B077EC"/><stop offset="1" stop-color="#8F89F6"/></linearGradient><linearGradient id="d" x1="65.353" x2="63.229" y1="3.017" y2="17.032" gradientUnits="userSpaceOnUse"><stop stop-color="#E48FF8"/><stop offset=".57" stop-color="#B077EC"/><stop offset="1" stop-color="#8F89F6"/></linearGradient><linearGradient id="e" x1="105.404" x2="94.066" y1="15.969" y2="31.804" gradientUnits="userSpaceOnUse"><stop stop-color="#E48FF8"/><stop offset=".57" stop-color="#B077EC"/><stop offset="1" stop-color="#8F89F6"/></linearGradient></defs></svg>
